core/img/actions/fulltext.svg

<?xml version="1.0" encoding="UTF-8" standalone="no"?>
<svg
   xmlns:dc="http://purl.org/dc/elements/1.1/"
   xmlns:cc="http://creativecommons.org/ns#"
   xmlns:rdf="http://www.w3.org/1999/02/22-rdf-syntax-ns#"
   xmlns:svg="http://www.w3.org/2000/svg"
   xmlns="http://www.w3.org/2000/svg"
   xmlns:sodipodi="http://sodipodi.sourceforge.net/DTD/sodipodi-0.dtd"
   xmlns:inkscape="http://www.inkscape.org/namespaces/inkscape"
   height="34.133335"
   width="34.133335"
   version="1.0"
   id="svg2"
   inkscape:version="0.92.1 r"
   sodipodi:docname="fulltext.svg">
  <metadata
     id="metadata10">
    <rdf:RDF>
      <cc:Work
         rdf:about="">
        <dc:format>image/svg+xml</dc:format>
        <dc:type
           rdf:resource="http://purl.org/dc/dcmitype/StillImage" />
        <dc:title></dc:title>
      </cc:Work>
    </rdf:RDF>
  </metadata>
  <defs
     id="defs8" />
  <sodipodi:namedview
     pagecolor="#ffffff"
     bordercolor="#666666"
     borderopacity="1"
     objecttolerance="10"
     gridtolerance="10"
     guidetolerance="10"
     inkscape:pageopacity="0"
     inkscape:pageshadow="2"
     inkscape:window-width="2560"
     inkscape:window-height="1377"
     id="namedview6"
     showgrid="false"
     inkscape:zoom="7.375"
     inkscape:cx="16"
     inkscape:cy="16"
     inkscape:window-x="1680"
     inkscape:window-y="0"
     inkscape:window-maximized="1"
     inkscape:current-layer="svg2" />
  <path
     d="M 3.2,2.1333333 C 2.6090667,2.1333333 2.1333333,2.6090667 2.1333333,3.2 V 5.3333333 C 2.1333333,5.9242667 2.6090667,6.4 3.2,6.4 H 30.933333 C 31.524267,6.4 32,5.9242667 32,5.3333333 V 3.2 C 32,2.6090667 31.524267,2.1333333 30.933333,2.1333333 Z m 0,8.5333337 c -0.5909333,0 -1.0666667,0.475733 -1.0666667,1.066666 v 2.133334 c 0,0.590933 0.4757334,1.066666 1.0666667,1.066666 h 19.2 c 0.590933,0 1.066667,-0.475733 1.066667,-1.066666 v -2.133334 c 0,-0.590933 -0.475734,-1.066666 -1.066667,-1.066666 z M 3.2,19.2 c -0.5909333,0 -1.0666667,0.475733 -1.0666667,1.066667 V 22.4 c 0,0.590933 0.4757334,1.066667 1.0666667,1.066667 h 25.6 c 0.590933,0 1.066667,-0.475734 1.066667,-1.066667 V 20.266667 C 29.866667,19.675733 29.390933,19.2 28.8,19.2 Z m 0,8.533333 c -0.5909333,0 -1.0666667,0.475734 -1.0666667,1.066667 v 2.133333 C 2.1333333,31.524267 2.6090667,32 3.2,32 H 16 c 0.590933,0 1.066667,-0.475733 1.066667,-1.066667 V 28.8 c 0,-0.590933 -0.475734,-1.066667 -1.066667,-1.066667 z"
     id="path4"
     style="fill:#f2f2f2;stroke-width:1.06666672;fill-opacity:1"
     inkscape:connector-curvature="0" />
</svg>

<svg xmlns:rdf="http://www.w3.org/1999/02/22-rdf-syntax-ns#" xmlns="http://www.w3.org/2000/svg" height="34.133" width="34.133" version="1.0" xmlns:cc="http://creativecommons.org/ns#" xmlns:dc="http://purl.org/dc/elements/1.1/">
 <path d="m3.2 2.1333c-0.5909 0-1.0667 0.4758-1.0667 1.0667v2.1333c0 0.591 0.4758 1.0667 1.0667 1.0667h27.733c0.591 0 1.067-0.4757 1.067-1.0667v-2.1333c0-0.5909-0.476-1.0667-1.067-1.0667zm0 8.5333c-0.59093 0-1.0667 0.47573-1.0667 1.0667v2.1333c0 0.59093 0.47573 1.0667 1.0667 1.0667h19.2c0.59093 0 1.0667-0.47573 1.0667-1.0667v-2.1333c0-0.59093-0.47573-1.0667-1.0667-1.0667zm0 8.533c-0.59093 0-1.0667 0.47573-1.0667 1.0667v2.133c0 0.59093 0.47573 1.0667 1.0667 1.0667h25.6c0.59093 0 1.0667-0.47573 1.0667-1.0667v-2.133c0-0.591-0.476-1.067-1.067-1.067zm0 8.5333c-0.59093 0-1.0667 0.47573-1.0667 1.0667v2.1333c0 0.591 0.4758 1.067 1.0667 1.067h12.8c0.59093 0 1.0667-0.47573 1.0667-1.0667v-2.133c0-0.59093-0.47573-1.0667-1.0667-1.0667z" stroke-width="1.0667" fill="#f2f2f2"/>
</svg>
